X: 109
M:2/4
L:1/16
K:A
vAEAc ecea|fdfa ecAc|dBfe dcBA|GABc B2E2|
|:vC"4"AGA c"4"AGA|F"4"AEA DACA|F"0"DF"0"A dcBA|


